X:1
T:078 - Tudo de Graça
T:Letra: Henry Maxwell Wright (1849-1931)
T:Música: J. C. Bateman
M:9/8
L:1/8
K:D
V:1
"D"A2^GB3A3 | d2A"G"c3B3 | ("A7"A3 c2B)A2G | "D"F6 z3 | A2^GB3A3 | d2A "G"c3B3 | ("A7"A3A2)^AB2c | "D"d6 z3 |]
w: Sim, de gra-ça, Cris-to dá-me paz__ e per-dão, I-ne-fá-vel a-le-gri-a, ple_na sal-va-ção.
W: 
W:
W: Sim, de graça, 
W: Cristo dá-me
W: paz e perdão,
W: Inefável alegria, 
W: plena salvação.
W:         
W:





